source/svgs/bowtie/uEA4E-corner-resize.svg

<svg xmlns="http://www.w3.org/2000/svg" viewBox="0 0 448 448" enable-background="new 0 0 448 448"><path d="M448 147.375v27.14l-273.484 273.485h-27.14l300.624-300.625zm-182.986 300.625l182.986-182.986v-27.14l-210.125 210.126h27.139zm63.376 0h27.142l92.468-92.467v-27.143l-119.61 119.61z"/></svg>

<svg xmlns="http://www.w3.org/2000/svg" viewBox="0 0 448 448"><path d="M448 147.375v27.14L174.516 448h-27.14L448 147.375zM265.014 448L448 265.014v-27.14L237.875 448h27.139zm63.376 0h27.142L448 355.533V328.39L328.39 448z"/></svg>
